X:1
T:Rose Tree
%%composerspace
C:from the box playing of Sally Sloane
%%musicspace
L:1/8
M:4/4
K:Dmaj
fe|:d2B2 A2F2|A4 A2A2|d2d2 e2de|f2e4 fe|
|d2B2 A2F2|A2A2 A4|d2d2 e2de|f2<d2 d3e:|
|:f2e2f2g2|a6f2|g2f2 g2a2|b2a4fe|
|d2B2 A2F2|A2A2 A4|d2d2 e2de|f2d2 d2fe:|